X:0361
T:O La my Dear
C:West India
M:2/4
L:1/8
Q:1/2=120
I: :: || DC
P:ABA % Aird writes a da capo
Z:Jack Campin * www.campin.me.uk * 2009
K:D
P:A
f|e3 c|A2f2|g2ec|d3 f|e3c |A2f2|g2ec|d3  :|
P:B
z|a2af|g2ge|f2fd|e4  |a2af|g3 b|agfe|d4   |
  aaaf|ggge|fffd|e2fg|aaaf|g3 b|agfe|d2cd|]
<end>
<start>
